X: 38
T:The Scholar
% Nottingham Music Database
S:via PR
M:4/4
L:1/4
K:D
A|"D"d/2f/2a/2f/2 "A7"g/2f/2e/2g/2|"D"f/2d/2A/2G/2 "D7"F/2G/2A/2=c/2|\
"G"B/2G/2F/2G/2 "Em"E/2F/2G/2g/2|"D"f/2d/2e/2c/2 "A7"d/2c/2B/2A/2|
"D"d/2f/2a/2f/2 "A7"g/2f/2e/2g/2|"D"f/2d/2A/2G/2 "D7"F/2G/2A/2=c/2|\
"G"B/2G/2F/2G/2 "Em"E/2F/2G/2g/2| [1"A7"f/2d/2e/2c/2 "D"d:|
 [2"A7"f/2d/2e/2c/2 "D"d/2e/2f/2g/2|:"D"af/2d/2 d/2f/2a/2f/2|\
"D"d/2f/2a/2f/2 b/2a/2g/2f/2|
"C"g/2f/2g/2e/2 =c/2e/2g/2e/2|"C"=c/2e/2g/2e/2 a/2g/2f/2e/2|\
"D"a/2^g/2a/2f/2 d/2f/2a/2f/2|
"D"d/2f/2a/2f/2 b/2a/2g/2f/2|"G"g/2f/2e/2f/2 "Em"g/2b/2a/2g/2|\
 [1"A7"f/2d/2e/2c/2 "D"d/2e/2f/2g/2:|[2"A7"f/2d/2e/2c/2 "D"d||<end>
<start>
